X:104
%%etbk:tnset id:37,pos:1,rep:3x,ant:
%%etbk:wsite http://www.thesession.org/tunes/display/769
%%etbk:pldat 2016-07-12T16:42,2016-03-20T15:10,2016-03-17T18:43,2016-01-13T17:06,2015-12-29T16:12,2015-12-23T16:38,2015-12-21T18:56,2015-11-29T15:08,2015-02-06T17:59,2014-12-28T14:23,2014-12-14T16:10,2014-09-08T18:22,2014-05-13T18:52,2014-05-02T17:30,2014-04-27T12:52,2014-04-07T19:23,2014-03-26T17:41,2014-03-25T16:54,2014-02-16T14:10,2014-02-06T18:10,2013-12-11T18:43,2013-05-01T16:28
T: Belles Of Tipperary, The
Z: Piano Box Version by Martin Fleischmann
H: Created 2013-02-19 /  Last Modified 2013-02-19
M: 4/4
L: 1/8
R: reel
K: Dmaj
|: "D-Drone"!1!D!3!A!2!A!3!A !1!D!3!A!2!F!1!A | !3!de!5!fe !3!d!2!BB!1!A | !2!B{d}B!1!A!2!F !1!AB!3!de | !5!fede "A"!5!f!4!ee2 |
"D"!3!d!1!A !3!(3A!2!A!1!A !1!A2!2!F!1!A | !3!de!5!fe !3!d!2!BB!1!A | !2!B{d}B!1!A!2!F !1!AB!4!d!2!B | "A"!1!A!3!FE!4!G "D"!3!F!1!DD2 :||
|: "D"!4!a!1!dab !4!a!2!fd!3!f | !4!gfe!1!d !2!B!1!def | "G"!4!g2!3!gf !3!g!5!ba!3!g | "D"!3!f2!5!af "A"!2!e!5!g!4!f!3!e |
"G"!2!d!1!B!2!BB "D"!1!A!2!FFF | !1!D2!2!FF !1!A!2!B!4!d!3!f | !5!a!3!f!1!e!3!c !4!d!2!B!1!AF |1 !1!AB!3!de !5!f!3!d!1!d2 :|2 "A"!2!EF!4!GE "D"!3!F!1!DD2 ||


